X: 23402
T: Leprechaun Step, The
R: mazurka
M: 3/4
K: Edorian
|:EB BA cB|EB BA B2|EB BA cB|1 AG FG AB:|2 AG FG AF||
|:BE EF GE|FE DE F2|EB BA cB|AG FG AB:|

